X:431
T: Es scheint die Sonn' am Himmel (4-27), S. 46
N: P0701
O: Lothringen
S: MERKELBACH-PINCK, Angelika: Verklingende Weisen, Bd 5, Kassel 1962]
R: geistliches, religiöses Lied]
M: 3/4
L: 1/4
K: Bb
G | F2F | FGA | B2A | G2
G | F2F | BAG | F2
E | D2D | EDE | F2
B | d2B | c2c | FGA | B2

